svg/24/facecam--filled.svg

<svg width="24" height="24" viewBox="0 0 24 24" fill="currentColor" xmlns="http://www.w3.org/2000/svg"><path d="M12 14.5C13.3807 14.5 14.5 13.3807 14.5 12C14.5 10.6193 13.3807 9.5 12 9.5C10.6193 9.5 9.5 10.6193 9.5 12C9.5 13.3807 10.6193 14.5 12 14.5Z"/><path fill-rule="evenodd" clip-rule="evenodd" d="M2.48487 18.1913C2.77877 18.7231 3.35368 19 3.96125 19L20.0388 19C20.6463 19 21.2212 18.7231 21.5153 18.1914C22.1078 17.1198 23 15.0084 23 12.0088V11.9912C23 8.99157 22.1078 6.88018 21.5153 5.80859C21.2212 5.27691 20.6463 5 20.0387 5H3.96125C3.35368 5 2.77877 5.27692 2.48487 5.80867C1.89229 6.88083 1 8.99427 1 12C1 15.0057 1.89229 17.1192 2.48487 18.1913ZM12 16C14.2091 16 16 14.2091 16 12C16 9.79086 14.2091 8 12 8C9.79086 8 8 9.79086 8 12C8 14.2091 9.79086 16 12 16ZM3.25 12.75H5.25C5.66421 12.75 6 12.4142 6 12C6 11.5858 5.66421 11.25 5.25 11.25H3.25C2.83579 11.25 2.5 11.5858 2.5 12C2.5 12.4142 2.83579 12.75 3.25 12.75Z"/></svg>

<svg xmlns="http://www.w3.org/2000/svg" width="24" height="24" fill="currentColor" viewBox="0 0 24 24">
  <path d="M12 14.5a2.5 2.5 0 1 0 0-5 2.5 2.5 0 0 0 0 5Z"/>
  <path fill-rule="evenodd" d="M2.485 18.191c.294.532.869.809 1.476.809H20.04c.607 0 1.182-.277 1.476-.809C22.108 17.12 23 15.008 23 12.01v-.018c0-3-.892-5.11-1.485-6.182-.294-.533-.869-.81-1.475-.81H3.96c-.607 0-1.182.277-1.476.809C1.892 6.88 1 8.994 1 12s.892 5.12 1.485 6.191ZM12 16a4 4 0 1 0 0-8 4 4 0 0 0 0 8Zm-8.75-3.25h2a.75.75 0 0 0 0-1.5h-2a.75.75 0 0 0 0 1.5Z" clip-rule="evenodd"/>
</svg>
